material/.icons/material/tshirt-v-outline.svg

<svg xmlns="http://www.w3.org/2000/svg" viewBox="0 0 24 24"><path d="M16 21H8a1 1 0 01-1-1v-7.93l-1.3 1.05c-.39.38-1.02.38-1.41 0l-2.83-2.83a.996.996 0 010-1.41L7.34 3H9c0 1.1 1 3 3 4.25C14 6 15 4.1 15 3h1.66l5.88 5.88c.39.39.39 1.02 0 1.41l-2.83 2.83c-.39.38-1.02.38-1.41 0L17 12.07V20a1 1 0 01-1 1m4.42-11.42l-4.31-4.3C15 7 14 8.25 12 9.25c-2-1-3-2.25-4.11-3.97l-4.31 4.3L5 11l3-2h1v10h6V9h1l3 2 1.42-1.42z"/></svg>

<?xml version="1.0" encoding="UTF-8"?><!DOCTYPE svg PUBLIC "-//W3C//DTD SVG 1.1//EN" "http://www.w3.org/Graphics/SVG/1.1/DTD/svg11.dtd"><svg xmlns="http://www.w3.org/2000/svg" xmlns:xlink="http://www.w3.org/1999/xlink" version="1.1" id="mdi-tshirt-v-outline" width="24" height="24" viewBox="0 0 24 24"><path d="M16,21H8A1,1 0 0,1 7,20V12.07L5.7,13.12C5.31,13.5 4.68,13.5 4.29,13.12L1.46,10.29C1.07,9.9 1.07,9.27 1.46,8.88L7.34,3H9C9,4.1 10,6 12,7.25C14,6 15,4.1 15,3H16.66L22.54,8.88C22.93,9.27 22.93,9.9 22.54,10.29L19.71,13.12C19.32,13.5 18.69,13.5 18.3,13.12L17,12.07V20A1,1 0 0,1 16,21M20.42,9.58L16.11,5.28C15,7 14,8.25 12,9.25C10,8.25 9,7 7.89,5.28L3.58,9.58L5,11L8,9H9V19H15V9H16L19,11L20.42,9.58Z" /></svg>
